X: 11823
T: NYMPHS AND SHEPHERDS COME AWAY
T: From the opera of "King Arthur."
C: Purcell.
Q: "Not too quick."
%R: air, march, reel
B: W. Hamilton "Universal Tune-Book" Vol. 1 Glasgow 1844 p.182 #3
S: http://imslp.org/wiki/Hamilton's_Universal_Tune-Book_(Various)
Z: 2016 John Chambers <jc:trillian.mit.edu>
M: C
L: 1/8
K: G
% - - - - - - - - - - - - - - - - - - - - - - - - -
|:\
G3A (BA)G2 | (Bc)d2 d4 | D2G2 G4 |\
G3A (BA)G2 | (cd)e2 e4 | A2d2 d2D2 |\
(GA)B2 (cB)(AG) | G6 "^Fin."z2 H:|\
g2B2 e2B2 |
c4 d2B2 | G4 c2A2 |\
F4 B2G2 | E2(FG) (AB)(AG) |\
(FGFE) D4 | A2A2 B2G2 |\
d4 z2A2 | B2G2 d2Hg2 |\
B6 A2 | G4 Hd2{cBAE}"^D.C."F2 |]
% - - - - - - - - - - - - - - - - - - - - - - - - -

%%sep 1 1 500
%%sep 1 1 500

